build/images/page-6/business-cases/business-cases-bg-mobile.svg

<svg width="313" height="65" viewBox="0 0 313 65" fill="none" xmlns="http://www.w3.org/2000/svg">
<path d="M45.7939 62.3617V14.1982" stroke="#00A79E" stroke-width="2.03453" stroke-miterlimit="10" stroke-linecap="round" stroke-linejoin="round"/>
<path d="M42.6981 7.83877C42.6981 11.5126 45.7885 14.4881 45.7885 14.4881C45.7885 14.4881 48.8789 11.5126 48.8789 7.83877C48.8789 4.16489 45.7885 1.18945 45.7885 1.18945C45.7885 1.18945 42.6981 4.16489 42.6981 7.83877Z" stroke="#00A79E" stroke-width="2.03453" stroke-miterlimit="10" stroke-linecap="round" stroke-linejoin="round"/>
<path d="M49.9209 15.0617C46.9098 17.1513 46.2306 21.393 46.2306 21.393C46.2306 21.393 50.4303 22.2504 53.4415 20.1608C56.4526 18.0712 57.1318 13.8295 57.1318 13.8295C57.1318 13.8295 52.9321 12.9721 49.9209 15.0617Z" stroke="#00A79E" stroke-width="2.03453" stroke-miterlimit="10" stroke-linecap="round" stroke-linejoin="round"/>
<path d="M49.9209 25.9416C46.9098 28.0312 46.2306 32.2729 46.2306 32.2729C46.2306 32.2729 50.4303 33.1303 53.4415 31.0407C56.4526 28.9511 57.1318 24.7094 57.1318 24.7094C57.1318 24.7094 52.9321 23.8519 49.9209 25.9416Z" stroke="#00A79E" stroke-width="2.03453" stroke-miterlimit="10" stroke-linecap="round" stroke-linejoin="round"/>
<path d="M42.1036 15.0617C45.1147 17.1513 45.7939 21.393 45.7939 21.393C45.7939 21.393 41.5942 22.2504 38.583 20.1608C35.5719 18.0712 34.8927 13.8295 34.8927 13.8295C34.8927 13.8295 39.0924 12.9721 42.1036 15.0617Z" stroke="#00A79E" stroke-width="2.03453" stroke-miterlimit="10" stroke-linecap="round" stroke-linejoin="round"/>
<path d="M42.1036 25.9416C45.1147 28.0312 45.7939 32.2729 45.7939 32.2729C45.7939 32.2729 41.5942 33.1303 38.583 31.0407C35.5719 28.9511 34.8927 24.7094 34.8927 24.7094C34.8927 24.7094 39.0924 23.8519 42.1036 25.9416Z" stroke="#00A79E" stroke-width="2.03453" stroke-miterlimit="10" stroke-linecap="round" stroke-linejoin="round"/>
<path d="M49.9209 37.7697C46.9098 39.8593 46.2306 44.101 46.2306 44.101C46.2306 44.101 50.4303 44.9584 53.4415 42.8688C56.4526 40.7792 57.1318 36.5375 57.1318 36.5375C57.1318 36.5375 52.9321 35.6801 49.9209 37.7697Z" stroke="#00A79E" stroke-width="2.03453" stroke-miterlimit="10" stroke-linecap="round" stroke-linejoin="round"/>
<path d="M42.1036 37.7697C45.1147 39.8593 45.7939 44.101 45.7939 44.101C45.7939 44.101 41.5942 44.9584 38.583 42.8688C35.5719 40.7792 34.8927 36.5375 34.8927 36.5375C34.8927 36.5375 39.0924 35.6801 42.1036 37.7697Z" stroke="#00A79E" stroke-width="2.03453" stroke-miterlimit="10" stroke-linecap="round" stroke-linejoin="round"/>
<path opacity="0.25" d="M114.303 62.9633C114.303 62.9633 139.469 57.5552 129.634 12.0997C129.634 12.0997 102.116 28.4542 114.303 62.9633Z" fill="#00A99E"/>
<path d="M116.371 60.7701C116.371 60.7701 136.709 64.758 139.36 26.6364C139.351 26.6402 114.788 30.3055 116.371 60.7701Z" stroke="#00A99E" stroke-width="2" stroke-miterlimit="10" stroke-linecap="round" stroke-linejoin="round"/>
<path d="M117.045 59.9999C117.632 59.0199 135.384 31.5214 135.384 31.5214" stroke="#00A99E" stroke-width="2" stroke-miterlimit="10" stroke-linecap="round" stroke-linejoin="round"/>
<path d="M131.961 32.3401L132 37.8298" stroke="#00A99E" stroke-width="2" stroke-miterlimit="10" stroke-linecap="round" stroke-linejoin="round"/>
<path d="M135.264 38.1434L130.051 40.2432" stroke="#00A99E" stroke-width="2" stroke-miterlimit="10" stroke-linecap="round" stroke-linejoin="round"/>
<path d="M131.987 42.9196L126.774 45.0195" stroke="#00A99E" stroke-width="2" stroke-miterlimit="10" stroke-linecap="round" stroke-linejoin="round"/>
<path d="M128.711 47.6974L123.494 49.7852" stroke="#00A99E" stroke-width="2" stroke-miterlimit="10" stroke-linecap="round" stroke-linejoin="round"/>
<path d="M128.39 37.2415L128.421 42.7361" stroke="#00A99E" stroke-width="2" stroke-miterlimit="10" stroke-linecap="round" stroke-linejoin="round"/>
<path d="M125.274 41.7806L125.304 47.2752" stroke="#00A99E" stroke-width="2" stroke-miterlimit="10" stroke-linecap="round" stroke-linejoin="round"/>
<path d="M89.1924 62.8674V48.0811" stroke="#00A79E" stroke-width="2.03453" stroke-miterlimit="10" stroke-linecap="round" stroke-linejoin="round"/>
<path d="M210 62.8674V48.0811" stroke="#00A79E" stroke-width="2.03453" stroke-miterlimit="10" stroke-linecap="round" stroke-linejoin="round"/>
<path d="M75.8057 62.5495V53.4131" stroke="#00A79E" stroke-width="2.03453" stroke-miterlimit="10" stroke-linecap="round" stroke-linejoin="round"/>
<path d="M99.1426 62.8678V55.4746" stroke="#00A79E" stroke-width="2.03453" stroke-miterlimit="10" stroke-linecap="round" stroke-linejoin="round"/>
<path d="M16.1826 54.1855V62.3623" stroke="#00A79E" stroke-width="2.03453" stroke-miterlimit="10" stroke-linecap="round" stroke-linejoin="round"/>
<path d="M27.4639 57.0703V62.3625" stroke="#00A79E" stroke-width="2.03453" stroke-miterlimit="10" stroke-linecap="round" stroke-linejoin="round"/>
<path opacity="0.56" d="M225.2 62.6684C224.43 61.016 224 59.1762 224 57.2343C224 50.1307 229.739 44.3729 236.82 44.3729C238.897 44.3729 240.856 44.8726 242.593 45.7527C245.231 39.3646 251.496 34.873 258.815 34.873C265.652 34.873 271.567 38.7968 274.471 44.5148C275.093 44.424 275.727 44.3729 276.372 44.3729C283.453 44.3729 289.192 50.1307 289.192 57.2343C289.192 59.1762 288.762 61.016 287.992 62.6684H225.2Z" fill="#00A79E"/>
<path d="M2 63.1289L311 63.1289" stroke="#00A79E" stroke-width="2.03453" stroke-miterlimit="10" stroke-linecap="round" stroke-linejoin="round"/>
<path d="M201.36 23.1289V33.8489" stroke="#00A99E" stroke-width="2" stroke-miterlimit="10" stroke-linecap="round" stroke-linejoin="round"/>
<path d="M206.72 28.4893H196" stroke="#00A99E" stroke-width="2" stroke-miterlimit="10" stroke-linecap="round" stroke-linejoin="round"/>
<path d="M277.36 9.12891V19.8489" stroke="#00A99E" stroke-width="2" stroke-miterlimit="10" stroke-linecap="round" stroke-linejoin="round"/>
<path d="M282.72 14.4893H272" stroke="#00A99E" stroke-width="2" stroke-miterlimit="10" stroke-linecap="round" stroke-linejoin="round"/>
<path d="M95.3604 1.12891V11.8489" stroke="#00A99E" stroke-width="2" stroke-miterlimit="10" stroke-linecap="round" stroke-linejoin="round"/>
<path d="M100.72 6.48926H90" stroke="#00A99E" stroke-width="2" stroke-miterlimit="10" stroke-linecap="round" stroke-linejoin="round"/>
<path d="M171.959 61.6651V37.748" stroke="#00A79E" stroke-width="2.03453" stroke-miterlimit="10" stroke-linecap="round" stroke-linejoin="round"/>
<path d="M168.569 30.7917C168.569 34.8063 171.959 38.0599 171.959 38.0599C171.959 38.0599 175.349 34.8063 175.349 30.7917C175.349 26.7771 171.959 23.5234 171.959 23.5234C171.959 23.5234 168.569 26.7771 168.569 30.7917Z" stroke="#00A79E" stroke-width="2.03453" stroke-miterlimit="10" stroke-linecap="round" stroke-linejoin="round"/>
<path d="M167.91 38.6905C171.209 40.9732 171.959 45.618 171.959 45.618C171.959 45.618 167.354 46.5549 164.049 44.2723C160.75 41.9896 160 37.3447 160 37.3447C160 37.3447 164.611 36.4078 167.91 38.6905Z" stroke="#00A79E" stroke-width="2.03453" stroke-miterlimit="10" stroke-linecap="round" stroke-linejoin="round"/>
</svg>

<svg width="313" height="65" viewBox="0 0 313 65" fill="none" xmlns="http://www.w3.org/2000/svg"><path d="M45.794 62.362V14.198m-3.096-6.359c0 3.674 3.09 6.65 3.09 6.65s3.09-2.976 3.09-6.65c0-3.674-3.09-6.65-3.09-6.65s-3.09 2.976-3.09 6.65zm7.222 7.223c-3.01 2.09-3.69 6.331-3.69 6.331s4.2.857 7.212-1.232c3.01-2.09 3.69-6.332 3.69-6.332s-4.2-.857-7.211 1.233zm0 10.88c-3.01 2.09-3.69 6.33-3.69 6.33s4.2.858 7.212-1.231c3.01-2.09 3.69-6.332 3.69-6.332s-4.2-.857-7.211 1.233zm-7.816-10.88c3.01 2.09 3.69 6.331 3.69 6.331s-4.2.857-7.211-1.232c-3.011-2.09-3.69-6.332-3.69-6.332s4.2-.857 7.21 1.233zm0 10.88c3.01 2.09 3.69 6.33 3.69 6.33s-4.2.858-7.211-1.231c-3.011-2.09-3.69-6.332-3.69-6.332s4.2-.857 7.21 1.233zM49.92 37.77c-3.01 2.09-3.69 6.331-3.69 6.331s4.2.857 7.212-1.232c3.01-2.09 3.69-6.331 3.69-6.331s-4.2-.858-7.211 1.232zm-7.816 0c3.01 2.09 3.69 6.331 3.69 6.331s-4.2.857-7.211-1.232c-3.011-2.09-3.69-6.331-3.69-6.331s4.2-.858 7.21 1.232z" stroke="#00A79E" stroke-width="2.035" stroke-miterlimit="10" stroke-linecap="round" stroke-linejoin="round"/><path opacity=".25" d="M114.303 62.963s25.166-5.408 15.331-50.863c0 0-27.518 16.354-15.331 50.863z" fill="#00A99E"/><path d="M116.371 60.77s20.338 3.988 22.989-34.134c-.009.004-24.572 3.67-22.989 34.134zm.674-.77c.587-.98 18.339-28.479 18.339-28.479m-3.423.819l.039 5.49m3.264.313l-5.213 2.1m1.936 2.677l-5.213 2.1m1.937 2.677l-5.217 2.088m4.896-12.543l.031 5.494m-3.147-.956l.03 5.495" stroke="#00A99E" stroke-width="2" stroke-miterlimit="10" stroke-linecap="round" stroke-linejoin="round"/><path d="M89.192 62.867V48.081M210 62.867V48.081M75.806 62.55v-9.137m23.337 9.455v-7.393m-82.96-1.29v8.177m11.281-5.292v5.292" stroke="#00A79E" stroke-width="2.035" stroke-miterlimit="10" stroke-linecap="round" stroke-linejoin="round"/><path opacity=".56" d="M225.2 62.668a12.827 12.827 0 01-1.2-5.434c0-7.103 5.739-12.861 12.82-12.861 2.077 0 4.036.5 5.773 1.38 2.638-6.388 8.903-10.88 16.222-10.88 6.837 0 12.752 3.924 15.656 9.642a13.118 13.118 0 011.901-.142c7.081 0 12.82 5.758 12.82 12.861 0 1.942-.43 3.782-1.2 5.434H225.2z" fill="#00A79E"/><path d="M2 63.129h309" stroke="#00A79E" stroke-width="2.035" stroke-miterlimit="10" stroke-linecap="round" stroke-linejoin="round"/><path d="M201.36 23.129v10.72m5.36-5.359H196m81.36-19.361v10.72m5.36-5.359H272M95.36 1.129v10.72m5.36-5.359H90" stroke="#00A99E" stroke-width="2" stroke-miterlimit="10" stroke-linecap="round" stroke-linejoin="round"/><path d="M171.959 61.665V37.748m-3.39-6.956c0 4.014 3.39 7.268 3.39 7.268s3.39-3.254 3.39-7.268c0-4.015-3.39-7.269-3.39-7.269s-3.39 3.254-3.39 7.269zm-.659 7.898c3.299 2.283 4.049 6.928 4.049 6.928s-4.605.937-7.91-1.346C160.75 41.99 160 37.345 160 37.345s4.611-.937 7.91 1.346z" stroke="#00A79E" stroke-width="2.035" stroke-miterlimit="10" stroke-linecap="round" stroke-linejoin="round"/></svg>
